!!!ONB: MCCC : IJH0456_01 : Extracted Monophonic Melody
!!!COM: Haydn, Joseph
!!!OPR: String Quartet in F minor
!!!OMV: 1
!!!SCT: Hob.III:35 ; Op.20 No.5
!!!ODT: 1772///
**kern
*thru
*k[b-e-a-d-]
*f:
*clefG
*M4/4
3..f[
24f]
8a-
8e
8f
=1
3..g[
24g]
8b-
8d-
8c
=2
3..a-[
24a-]
8cc
8e
8f
=3
8r
8g
8b-
8dd-
8cc
16b-
16a-
8g
16f
16e
=4
2f[
16f]
16cc
16b-
16a-
16g
16f
16e
16f
=5
8f#
8g
6..g[
48g]
16a-
16b-
16cc
8dd-
16cc
16b-
=6
16b-
16a-
16g
16a-
6..a-[
48a-]
16cc
16b-
16a-
16g
16f
16e
16f
=7
8cc
8b-
6..b-[
48b-]
16ff
16ee
16ff
16gg
16ff
16aa-
16gg
=8
8gg
8ff
6..ff[
48ff]
16f
16e
16f
16g
16f
16a-
16f
=9
8e
8cc
8r
8ee
8ff
8ff
16r
16a-
16g
16f
=10
8e
8cc
8r
8gg
8aa-
8aa-
16r
16a-
16g
16f
=11
2f
8e
8f
8e
8f
=12
1e
=13
2.e-
4g-
=14
4f
2ff
4ee-
=15
4dd-
4cc
4b-
4a-[
=16
4a-]
16g
16a-
16b-
16cc
16dd-
16b-
16g
16e-
16d-
16B-
16G
16B-
=17
16d-
16e-
16g
16b-
8dd-
8dd-
4dd-
4r
=18
4.r
16bb-
16gg
8ee-
8dd-
8cc
8b-
=19
3..a-[
24a-]
8cc
8g
8a-
=20
3..ee-[
24ee-]
8ee-
8ff
8gg
=21
8aa-
8cc
8dd-
8aa-
8gg
8b
8cc
8gg
=22
8ff
8a
8b-
8ff
8ee-
8g
8a-
8ee-[
=23
8ee-]
4dd-
4cc
4b-
8a-
=24
16g
16ee-
16gg
16ee-
16gg
16ee-
16gg
16ee-
16dd
16ff
16aa-
16ff
16aa-
16ff
16dd
16ff
=25
16ee-
16dd
16ee-
16ff
16gg
16ee-
16gg
16ee-
16dd
16ee-
16ff
16ee-
16dd
16cc
16b-
16a-
=26
16g
16a-
16b-
16cc
16b-
16a-
16g
16f
4e-
8r
8e-
=27
4ee-
8dd-
8cc
8.b-
16cc
8dd-
8cc
=28
8.b-
16cc
8dd-
8cc
8b-
8cc
8dd-
8ee-
=29
4.ff
16ee-
16dd-
8cc
8ee-
8r
8a-
=30
8b-
8dd-
8r
8g
4a-
8r
16ee-
16cc
=31
8.b-
16cc
8dd-
8cc
4b-
4r
=32
8.b-
16cc
8dd-
8cc
4b-
4r
=33
4cc-
4r
4ff
4r
=34
3..ee-[
24ee-]
8dd
8ee-
8dd
=35
3..ee-[
24ee-]
8dd
8ee-
8dd
=36
2ee-
2gg
=37
2aa-
2ddd-
=38
16ccc
16ee-
8ee-
16ddd-
16ee-
8ee-
16ccc
16ee-
8ee-
16ddd-
16ee-
8ee-
=39
16ccc
16aa-
16eee-
16ccc
16eee-
16ccc
16eee-
16ccc
8aa-
8aa-
8ff
8aa-
=40
8aa-
8ff
6..ff[
48ff]
16dd-
8ddd-
8ccc
8bb-
=41
2eee-
2bb-
=42
2aa-
2gg
=43
2ff
2ee-
=44
4dd-
4cc
16r
16b-
16dd-
16b-
8a-
8g
=45
4a-
4e-
2f-
=46
4e-
4a-
2f-
=47
4e-
4a-
2e
=48
4e-
4f
4g-
4c
=49
3..d-[
24d-]
8f
8c
8d-
=50
3..e-[
24e-]
8a-
8e-
8g-
=51
3..f[
24f]
8a-
8f
8e-
=52
3..d[
24d]
8cc-
8b-
8d
=53
3..e-[
24e-]
8g-
8d
8e-
=54
3..f[
24f]
8a-
8c-
8B-
=55
3..g[
24g]
8b-
8ee-
8g
=56
3..a-[
24a-]
8cc
8g
8a-
=57
3..b-[
24b-]
8ff
8ee-
8dd-
=58
16cc
16ee-
16aa-
16ccc
16bb-
16aa-
16gg
16aa-
8.bb-
16dd-
8.dd-
32cc
32dd-
=59
16cc
16ee-
16aa-
16ccc
16bb-
16aa-
16gg
16aa-
8.bb-
16dd-
8.dd-
32cc
32dd-
=60
16cc
16ee-
16aa-
16ccc
16bb-
16aa-
16gg
16aa-
16gg-
16aa-
16ff
16aa-
16ee-
16aa-
16dd-
16aa-
=61
8cc
8gg-
8ee-
8cc
4a-
4g-
=62
8f
8ff
2ff
4ee-
=63
16dd
16ff
16bb-
16ddd
16ccc
16bb-
16aa
16bb-
16aa-
16bb-
16gg
16bb-
16ff
16bb-
16ee-
16bb-
=64
8dd
8aa-
8ff
8dd
4b-
4a-
=65
8g
8gg
2gg
4ff
=66
16ee
16gg
16ccc
16eee
16ddd
16ccc
16bb
16ccc
16bb-
16ccc
16aa-
16ccc
16gg
16ccc
16ff
16ccc
=67
8ee
8bb-
8gg
8ee
4cc
4b-
=68
8a-
8aa-
2aa-
4cc
=69
3..gg[
24gg]
8ff#
8gg
8ff#
=70
3..gg[
24gg]
8ff#
8gg
8ff#
=71
2gg
2bb
=72
2ccc
2fff
=73
16eee-
16ccc
16fff
16ddd
4.ggg
8eee-
8ccc
8gg
=74
8aa-
8ff
4fff
4eee-
4ddd
=75
2ccc
2ddd
=76
2.ccc
4eee-
=77
8eee-
8ddd-
4.ddd-
8ddd-
8eee-
8bb-
=78
8ddd-
8ccc
2ccc
4ccc
=79
8ccc
8bb-
4.bb-
8bb-
8ccc
8gg
=80
8bb-
8aa-
4.aa-
8aa-
8gg
8ff
=81
4ff
16ee
16ff
16gg
16aa-
16bb-
16gg
16ee
16dd-
16b-
16g
16e
16g
=82
16b-
16dd-
16ee
16gg
8bb-
8bb-
4bb-
4r
=83
4.r
24bb-
24gg
24ee
4cc
8r
24bb-
24gg
24ee
=84
4cc
8r
24bb-
24gg
24ee
8cc
8b-
8a-
8g
=85
3..f[
24f]
8a-
8e
8f
=86
3..g[
24g]
8b-
8d-
8c
=87
3..a-[
24a-]
8cc
8e
8f
=88
8r
8g
8b-
8dd-
8cc
16b-
16a-
8g
16f
16e
=89
2f[
16f]
16a-
16b-
16cc
16b-
16a-
16g
16f
=90
2g
16e
16g
16b-
16dd-
16cc
16b-
16a-
16g
=91
2f
16A
16f
16cc
16ee-
16dd-
16cc
16b-
16a
=92
2b-
16ff
16ee
16ff
16ee
16ff
16dd-
16cc
16b-
=93
2cc[
16cc]
16ee-
16ff
16gg-
16ff
16ee-
16dd-
16cc
=94
2b-
16dd
16b-
16ee-
16cc
16ff
16dd
16ee-
16cc
=95
2b[
16b]
16aa-
16gg
16aa-
16gg
16ff
16ee
16dd
=96
2cc
16ee
16cc
16ff
16dd
16gg
16ee
16ff
16dd
=97
2cc
16e
16cc
16ee
16dd
16ff
16ee
16gg
16ff
=98
4.aa-
8bb-
4.gg
8aa-
=99
4.ff
8gg
8ee
8gg
4cc[
=100
8cc]
8dd-
4.b-
8cc
4a-[
=101
8a-]
8b-
4.g
8a-
4f
=102
8e
4b-
4a-
4g
8f
=103
16e
16g
16cc
16g
16cc
16g
16cc
16g
16f
16b
16dd
16b
16a-
16f
16d
16B
=104
16c
16e
16g
16e
16g
16e
16g
16e
16A-
16d
16f
16d
16f
16d
16f
16d
=105
16G
16c
16e
16c
16e
16c
16e
16c
4G
8r
8c
=106
4cc
8b-
8a-
8.g
16a-
8b-
8a-
=107
8.g
16a-
8b-
8a-
8g
8a-
8b-
8cc
=108
4.dd-
16cc
16b-
8a-
8cc
8r
8f
=109
8g
8b-
8r
8e
4f
8r
16cc
16a-
=110
8.g
16a-
8b-
8a-
4g
4r
=111
8.g
16a-
8b-
8a-
4g
4r
=112
4a-
4r
4dd
4r
=113
3..cc[
24cc]
8b
8cc
8b
=114
3..cc[
24cc]
8b
8cc
8b
=115
3..cc[
24cc]
8ee
8ee
8ee
=116
8.ff
16gg
8aa-
8gg
8ff
4.r
=117
16ff
16gg
16aa-
16bb-
16aa-
16ff
16gg
16ee
8ff
4.r
=118
16r
16ff
16ee
16ff
16gg
16ff
16aa-
16gg
8ff
4.r
=119
4r
4.b-
8dd-
8cc
8b-
=120
4a
2a
4b-
=121
4cc
2cc
4ee-
=122
4dd-
4cc
2b
=123
3..cc[
24cc]
8b
8cc
8b
=124
3..cc[
24cc]
8b
8cc
8b
=125
2cc
2ee
=126
2ff
2bb-
=127
16aa-
16cc
8cc
16bb-
16cc
8cc
16aa-
16cc
8cc
16bb-
16cc
8cc
=128
16aa-
16ff
16aa-
16ff
16ccc
16aa-
16ccc
16aa-
8ff
8ee-
8dd-
8cc
=129
16b-
16dd-
16ff
16bb-
4.ddd-
8bb-
8aa-
8gg
=130
2ff
2gg
=131
2ff
2ee-
=132
2dd-
2cc
=133
4b-
4a-
16r
16g
16b-
16g
8f
8e
=134
4f
4c
2d-
=135
4c
4f
2d-
=136
4c
4f
4g-
4c
=137
4c
4f
2g-
=138
8.f
16g-
8a-
8g-
4f
4r
=139
8.g-
16a-
8b-
8a-
4g-
4r
=140
8.f
16g-
8a-
8g-
4f
4r
=141
8.g-
16a-
8b-
8a-
4g-
4r
=142
8.a-
16b-
8cc-
8b-
4a-
4r
=143
1b--
=144
2a-
2b--[
=145
2b--]
2a-[
=146
2a-]
2g-
=147
8f
4f
4f
4f
8f[
=148
8f]
4f
4f
4f
8f
=149
8.f
16g
8a-
8g
8f
8cc
8b-
8a-
=150
8.g
16a-
8b-
8a-
8g
8dd-
8cc
8b-
=151
8.a-
16b-
8cc
8b-
8a-
8aa-
8gg
8ff
=152
8.ee
16ff
8gg
8ff
8ee
8ddd-
8ccc
8bb-
=153
8aa-
8f
4r
16cc
16dd-
16ee-
16ff
16gg
16aa-
16bb-
16ccc
=154
8ddd-
8f
4r
16f
16g
16a-
16b-
16cc
16dd
16ee
16ff
=155
8gg
8bb-
8r
8aa-
8r
8gg
8r
8ee
=156
8ff
8f
4r
16cc
16dd-
16ee-
16ff
16gg
16aa-
16bb-
16ccc
=157
8ddd-
8f
4r
16f
16g
16a-
16b-
16cc
16dd
16ee
16ff
=158
8gg
8bb-
8r
8aa-
8r
8gg
8r
8ee
=159
4ff
4r
4e
4r
=160
4f
2.r
==
*-
